X: 54
T: String Quartet No. 13 in B\b Major, Op. 130 mvt 5
C: Ludwig van Beethoven
%%abc-version 2.0
%%abcx-abcm2ps-target-version 5.9.1 (29 Sep 2008)
%%abc-creator hum2abc beta
%%abcx-conversion-date 2021/01/27 10:01:09
%%abc-edited-by Craig Stuart Sapp
%%abcx-initial-encoding-date 2004/09/10/
%%gracespace 0 6 6
%%humdrum-veritas 855378704
%%humdrum-veritas-data 3541727814
%%linebreak <none>
%%barnumbers 0
L: 1/8
M: 3/4
N: Derived from quartet13-5.krn
Q: "Cavatina: Adagio molto espressivo" 1/4=60
%%staves [1 2 3 4]
V: 1 clef=treble
V: 2 clef=treble
V: 3 clef=alto
V: 4 clef=bass
K: Eb
[V:1] z2z2B,3/G/ | 
[V:2] GBcBAF | 
[V:3] G,4F,D, | 
[V:4] E,,2=E,,2F,,B,, | 
[V:1] G2>A2 BA/G/ | 
[V:2] B,2B,2B,2 | 
[V:3] E,2D,2E,2 | 
[V:4] E,E,,F,,2G,,2 | 
[V:1] G<Fz2z2 | 
[V:2] C=BdcAG | 
[V:3] C,G,F,2C,E, | 
[V:4] A,,2>A,,2A,,=A,, | 
[V:1] F2>G2 AG/F/ | 
[V:2] F2E2D2 | 
[V:3] D,B,B,2B,2 | 
[V:4] B,,4-B,, x & B,,2E,,2F,,A,, | 
[V:1] B2d2e2 | 
[V:2] E2B,2B,2 | 
[V:3] B,2A,2G,2 | 
[V:4] G,,2F,,2E,,2 | 
[V:1] f2A3G | 
[V:2] B,FD2E2 | 
[V:3] F,2F,2E,2 | 
[V:4] D,,2=B,,2C,2 | 
[V:1] GFcBAG | 
[V:2] C2>G2FE | 
[V:3] F,2G,CCB, | 
[V:4] A,,2=E,,2F,,G,, | 
[V:1] GB2GFG | 
[V:2] E2-EB,B,2 | 
[V:3] E,4F,2 | 
[V:4] B,,2B,,4 & x2C,,2D,,2 | 
[V:1] E2z2z2 | 
[V:2] B,B2GFG | 
[V:3] G,2B,4 & x2E,2F,2 | 
[V:4] [E,,2B,,2]B,,4 & x2C,,2D,,2 | 
[V:1] z2z2B,3/G/ | 
[V:2] EBcBAF | 
[V:3] [G,B,]E,D,E,D,D | 
[V:4] B,,(3:2:1x4 & E,,G,,A,,G,,F,,B,, | 
[V:1] G2>A2 BA/G/ | 
[V:2] [B,E]B,2B,-B,2 | 
[V:3] EE,D,2E,2 | 
[V:4] E,,2F,,2G,,2 | 
[V:1] GF2.G .E.E | 
[V:2] =B,2D2C2 | 
[V:3] D,2G,2G,2 | 
[V:4] G,,2=B,,2C,2 | 
[V:1] ED z DD=E | 
[V:2] C2C2C2 | 
[V:3] A,2B,2B,2 | 
[V:4] F,,2G,,2G,,2 | 
[V:1] =EF z c c3/^F/ | 
[V:2] C2F2^FC | 
[V:3] F,2C,2C,D, | 
[V:4] A,,2=A,,2_A,,2 | 
[V:1] G2A4 | 
[V:2] C2C4 | 
[V:3] E,2E,4 | 
[V:4] G,,2F,,4 | 
[V:1] G2z2z2 | 
[V:2] CGA4 | 
[V:3] E,[E,C][E,4C4] | 
[V:4] G,,G,,F,,4 | 
[V:1] G2=B4 | 
[V:2] C=B,AGFD | 
[V:3] E,D,z2G, z | 
[V:4] G,,2z2G,, z | 
[V:1] c>=EE4 | 
[V:2] =E2z2C z | 
[V:3] G,C_DCB,G, | 
[V:4] C, zz2C, z | 
[V:1] F2=A4 | 
[V:2] Cf_gfec | 
[V:3] A,=A,z2F z | 
[V:4] F, zz2F, z | 
[V:1] B2d3e/f/ | 
[V:2] d z B z B z | 
[V:3] F z F z F z | 
[V:4] F, B,CB,A,F, | 
[V:1] f>AA2z2 | 
[V:2] B z Fd2e/f/ | 
[V:3] F z DF2G/A/ & x3B,3 | 
[V:4] D,B,,C,B,,A,,F,, | 
[V:1] z6 | 
[V:2] f>AA2=AB | 
[V:3] [B,A]>F, F,E,E,D, | 
[V:4] D,,D,-D,C,C,B,, | 
[V:1] z6 | 
[V:2] B2E2(3BAG | 
[V:3] E,2G,2C,2 | 
[V:4] G,,2C,2A,,2 | 
[V:1] z2z2cB | 
[V:2] GAF2[B,2F2] | 
[V:3] E,2E,F,D,2 | 
[V:4] B,,2B,,2A,,B,, | 
[V:1] B2E2(3BAG | 
[V:2] B,2G,2C2 | 
[V:3] E,2E,2E,2 | 
[V:4] G,,2C,2A,,2 | 
[V:1] GB/A/F2dc/B/ | 
[V:2] B,2EF[B,2F2] | 
[V:3] E,2C,D,F,2 | 
[V:4] B,,2B,,2A,,B,, | 
[V:1] BE2<g2e/=B/ | 
[V:2] E2E2E2 | 
[V:3] [E,2B,2][E,2G,2][E,2G,2] | 
[V:4] G,,2B,,E,,C,2 | 
[V:1] =Bc cd de | 
[V:2] EC C=B, B,C | 
[V:3] [E,2A,2]E,F, G,C, | 
[V:4] A,,2A,,2A,,2 | 
[V:1] ec/>G/G2BA | 
[V:2] CE EB,D2 | 
[V:3] C,F,G,2F,2 | 
[V:4] =A,,2B,,2B,,2 | 
[V:1] A>BG2z2 | 
[V:2] D2EGBA | 
[V:3] F,2G,B,D,[F,D] | 
[V:4] E,,2E,2B,,2 | 
[V:1] z6 | 
[V:2] A>B GB2B | 
[V:3] [F,2D2][G,2E2][A,2D2] | 
[V:4] E,,2E,2F,2 | 
[V:1] z6 | 
[V:2] B2E2AG | 
[V:3] [B,2E2]G,2F,E, | 
[V:4] G,G,,C,2A,,2 | 
[V:1] z2z2cB | 
[V:2] GAF2[B,2F2] | 
[V:3] E,2E,D,D,2 | 
[V:4] B,,2C,B,,A,,2 | 
[V:1] B2E2{/F2E2D2E2} (3BAG | 
[V:2] [B,2G2]G,2C2 | 
[V:3] E,2E,2E,2 | 
[V:4] G,,2C,2A,,2 | 
[V:1] GAF2dc/B/ | 
[V:2] B,2C2[B,2D2] | 
[V:3] E,2E,2F,2 | 
[V:4] B,,2=A,,2_A,,2 | 
[V:1] BE2<g2e3//=B// | 
[V:2] [B,2E2]E2E2 | 
[V:3] G,2[E,2G,2][E,2G,2] | 
[V:4] G,,2B,,E,,C,2 | 
[V:1] =Bc cd de | 
[V:2] C2C=B, B,C | 
[V:3] A,2E,F, F,E, & E,C,x4 | 
[V:4] A,,2G,,2C,,2 | 
[V:1] ec/>G/G2AF | 
[V:2] [C2E2][B,E]B, B,A, | 
[V:3] E,F, G,E,D,2 | 
[V:4] =A,,2B,,2B,,2 | 
[V:1] FGE2z2 | 
[V:2] A,G, G,FFG & x3B,B,2 | 
[V:3] D,E, E,A,A,G, | 
[V:4] E,,2>E,,2D,,E,, | 
[V:1] z6 | 
[V:2] (3.E.E.E (3.E.E.E (3.E.E.E | 
[V:3] (3.E,.E,.E, (3.E,.E,.E, (3.E,.E,.E, | 
[V:4] (3.E,,.E,,.E,, (3.E,,.E,,.E,, (3.E,,.E,,.E,, | 
[V:1] z2_G4 | 
[V:2] (3EEE (3EEE (3EEE | 
[V:3] (3E,E,E, (3E,E,E, (3E,E,E, | 
[V:4] (3_D,,D,,D,, (3D,,D,,D,, (3D,,D,,D,, | 
[V:1] _G-G/._c/ z .c/>_d/ z e | 
[V:2] (3E_GG (3GGG (3GGG | 
[V:3] (3E,E,E, (3E,E,E, (3E,E,[E,_C] | 
[V:4] (3_C,C,C, (3C,C,C, (3C,C,C, | 
[V:1] z _d z ._f/>_g/ z a | 
[V:2] (3AAA (3AAA (3AAA | 
[V:3] (3[_D,_C][D,C][D,C] (3[D,C][D,C][D,C] (3[D,C][D,C][D,C] | 
[V:4] (3_F,,F,,F,, (3F,,F,,F,, (3F,,F,,F,, | 
[V:1] z a- a/A/=G/ _G/_F/F/ z/ F/ | 
[V:2] (3_DDD (3DDD (3DDD | 
[V:3] (3[_D,B,][D,B,][D,B,] (3[D,B,][D,B,][D,B,] (3[D,B,][D,B,][D,B,] | 
[V:4] (3_G,,G,,G,, (3G,,G,,G,, (3G,,G,,G,, | 
[V:1] z/ E/z/B/ z/ B/e/_d/ d/B/ z/ _c/ | 
[V:2] (3[_DE][DE][DE] (3[B,E][B,E][B,E] (3[_CE][CE][CE] | 
[V:3] (3[E,B,][E,B,][E,B,] (3E,E,E, (3E,E,E, | 
[V:4] (3=G,,G,,G,, (3G,,G,,G,, (3A,,A,,A,, | 
[V:1] z/ E//E// z/ B//B// z/ e//e// z/ _d//d// d/B_c/ | 
[V:2] (3[B,E][B,E][B,E] (3[B,E][B,E][B,E] (3[_CE][CE][CE] | 
[V:3] (3E,E,E, (3E,E,E, (3E,E,E, | 
[V:4] (3G,,G,,G,, (3G,,G,,G,, (3A,,A,,A,, | 
[V:1] e_c/G/A4 | 
[V:2] (3[_CE][CA]A,A,4 | 
[V:3] (3E,E,E,_D,2_D2 | 
[V:4] (3A,,E,,E,,_F,,4 | 
[V:1] B2z2z2 | 
[V:2] B,=G2<A2B | 
[V:3] G,_D,2<[D,2_D2]G, | 
[V:4] E,,2_F,,3E,, | 
[V:1] z2z2B,3/G/ | 
[V:2] BB=cBAF | 
[V:3] G,[E,2G,2][=E,G,][F,A,][F,=D] | 
[V:4] E,,2G,,2B,,2 | 
[V:1] G2>A2 BA/G/ | 
[V:2] B,2B,2B,2 | 
[V:3] [G,2E2]=D,2E,2 | 
[V:4] E,E,,=F,,2G,,2 | 
[V:1] G<Fz2z2 | 
[V:2] =C=BdcAG | 
[V:3] E,2>=E,2 F,_E, | 
[V:4] A,,2>A,,2 A,,=A,, | 
[V:1] F2>G2 AG/F/ | 
[V:2] B,3B,2B, | 
[V:3] D,2E,2D,F, | 
[V:4] B,,2G,,2F,,A,, | 
[V:1] B2d2e2 | 
[V:2] B,EA2G2 | 
[V:3] E,B,B,2B,2 | 
[V:4] G,,2F,,2E,,2 | 
[V:1] f2A3G | 
[V:2] F2D2E2 | 
[V:3] B,F,F,2E,2 | 
[V:4] D,,2=B,,2C,2 | 
[V:1] GFcBAG | 
[V:2] C2>G2FE | 
[V:3] F,2G,2CB, | 
[V:4] A,,2=E,,2F,,G,, | 
[V:1] GB2GFG | 
[V:2] E2-EB,-B,2 | 
[V:3] B,G,E,2F,2 | 
[V:4] B,,2B,,4 & x2C,,2D,,2 | 
[V:1] E2z2B2 | 
[V:2] B,B2GFG | 
[V:3] G,2B,4 & x2E,2F,2 | 
[V:4] [E,,2B,,2]B,,4 & x2C,,2D,,2 | 
[V:1] B2>e2f2 | 
[V:2] B,4B,2 | 
[V:3] G,G,A,G,F,D, | 
[V:4] [E,,B,,] B,,C,B,,A,,F,, | 
[V:1] g2z ef2 | 
[V:2] B,GAGFA, | 
[V:3] E,B,CB,A,D, | 
[V:4] E,,E,D,E,B,,2 | 
[V:1] AGFcBd | 
[V:2] E z CAGF | 
[V:3] E, zA,2B,A, | 
[V:4] C, z A, z[K:clef=tenor]B,2 | 
[V:1] e2>e2d2 | 
[V:2] Ebc'baf | 
[V:3] G,G,A,G,F,B, | 
[V:4] B,2>E2F2 | 
[V:1] e3e/f/f2 | 
[V:2] B BcBAF | 
[V:3] E,B,2B, B,A, | 
[V:4] G[K:clef=bass] G,,A,,G,,F,,D,, | 
[V:1] B2>A2 (3GAF | 
[V:2] E4D2 | 
[V:3] G,2E,2F,2 | 
[V:4] _D,,C,,2_C,B,,2 | 
[V:1] FGE2z2 | 
[V:2] D2B,G GA/F/ | 
[V:3] F,2G,E, E,F,/D,/ | 
[V:4] B,,2E,2z B, | 
[V:1] z> Ee3B | 
[V:2] FGE2B,B, | 
[V:3] D,E,A,B, G,G, | 
[V:4] A,G,F,G,E,E, | 
[V:1] A<G- Gz2!fermata!z |]  
[V:2] B,2[B,G]-[B,G]- [B,G]-!fermata![B,G] |]  
[V:3] G,2[E,G,]-[E,G,]- [E,G,]-!fermata![E,G,] |]  
[V:4] E,2[E,,B,,]-[E,,B,,]- [E,,B,,]-!fermata![E,,B,,] |]  


